rospo-icon-theme-classic-common/24x24/places/folder-brown-photo.svg

<svg height="24" width="24" xmlns="http://www.w3.org/2000/svg"><rect height="12" opacity=".2" rx="1" width="20" x="2" y="9.5"/><path d="m2 17c0 .554.446 1 1 1h18c .554 0 1-.446 1-1v-11c0-.554-.446-1-1-1h-10v-1c0-.554-.446-1-1-1h-7c-.554 0-1 .446-1 1" fill="#957552"/><rect height="12" opacity=".2" rx="1" width="20" x="2" y="8.5"/><rect fill="#e4e4e4" height="8" rx="1" width="16" x="4" y="7"/><rect fill="#ae8e6c" height="12" rx="1" width="20" x="2" y="9"/><path d="m3 3c-.554 0-1 .446-1 1v .5c0-.554.446-1 1-1h7c .554 0 1 .446 1 1v-.5c0-.554-.446-1-1-1zm8 2v .5h10c .554 0 1 .446 1 1v-.5c0-.554-.446-1-1-1z" fill="#fff" opacity=".1"/><path d="m10.5 11-.5 1h-.75c-.6925 0-1.25.557-1.25 1.25v3.5c0 .692.5575 1.25 1.25 1.25h5.5c.693 0 1.25-.558 1.25-1.25v-3.5c0-.693-.557-1.25-1.25-1.25h-.75l-.5-1zm1.5 2a2 2 0 0 1 2 2 2 2 0 0 1 -2 2 2 2 0 0 1 -2-2 2 2 0 0 1 2-2z" fill="#3d3226"/></svg>

<svg xmlns="http://www.w3.org/2000/svg" width="24" height="24" version="1">
 <rect style="opacity:0.2" width="20" height="12" x="2" y="9.5" rx="1" ry="1"/>
 <path style="fill:#957552" d="M 2,17 C 2,17.554 2.446,18 3,18 H 21 C 21.554,18 22,17.554 22,17 V 6 C 22,5.446 21.554,5 21,5 H 11 V 4 C 11,3.446 10.554,3 10,3 H 3 C 2.446,3 2,3.446 2,4"/>
 <rect style="opacity:0.2" width="20" height="12" x="2" y="8.5" rx="1" ry="1"/>
 <rect style="fill:#dcdcdc" width="16" height="8" x="4" y="7" rx="1" ry="1"/>
 <rect style="fill:#ae8e6c" width="20" height="12" x="2" y="9" rx="1" ry="1"/>
 <path style="opacity:0.1;fill:#ffffff" d="M 3,3 C 2.446,3 2,3.446 2,4 V 4.5 C 2,3.946 2.446,3.5 3,3.5 H 10 C 10.554,3.5 11,3.946 11,4.5 V 4 C 11,3.446 10.554,3 10,3 Z M 11,5 V 5.5 H 21 C 21.554,5.5 22,5.946 22,6.5 V 6 C 22,5.446 21.554,5 21,5 Z"/>
 <path style="fill:#3d3226" d="M 10.5 11 L 10 12 L 9.25 12 C 8.5575 12 8 12.557 8 13.25 L 8 16.75 C 8 17.442 8.5575 18 9.25 18 L 14.75 18 C 15.443 18 16 17.442 16 16.75 L 16 13.25 C 16 12.557 15.443 12 14.75 12 L 14 12 L 13.5 11 L 10.5 11 z M 12 13 A 2 2 0 0 1 14 15 A 2 2 0 0 1 12 17 A 2 2 0 0 1 10 15 A 2 2 0 0 1 12 13 z"/>
</svg>
